assets/icons/upload.svg

<svg width="14" height="14" viewBox="0 0 14 14" fill="none" xmlns="http://www.w3.org/2000/svg">
<g clip-path="url(#clip0_5511_4940)">
<path d="M0.976797 11.4863C0.752764 10.0121 0.521247 7.32296 1.19354 4.63381L12.6953 4.63379C13.3676 7.32295 13.1361 10.0121 12.9121 11.4862C12.8087 12.1668 12.2124 12.635 11.524 12.635H11.1951H2.69377H2.36488C1.67648 12.635 1.08023 12.1668 0.976797 11.4863Z" fill="white" fill-opacity="0.5"/>
<path d="M12.6951 4.63384C12.6951 4.63384 11.695 2.13346 9.69468 1.1333L4.19383 1.13332C2.19351 2.13348 1.19336 4.63386 1.19336 4.63386L12.6951 4.63384Z" fill="white" fill-opacity="0.5"/>
<path d="M2.69377 12.635H2.36488C1.67648 12.635 1.08023 12.1668 0.976797 11.4863C0.752764 10.0121 0.521247 7.32296 1.19354 4.63381L12.6953 4.63379C13.3676 7.32295 13.1361 10.0121 12.9121 11.4862C12.8087 12.1668 12.2124 12.635 11.524 12.635H11.1951" stroke="white" stroke-width="0.5" stroke-linecap="round" stroke-linejoin="round"/>
<path d="M12.6951 4.63384C12.6951 4.63384 11.695 2.13346 9.69468 1.1333L4.19383 1.13332C2.19351 2.13348 1.19336 4.63386 1.19336 4.63386L12.6951 4.63384Z" fill="white" fill-opacity="0.5" stroke="white" stroke-width="0.5" stroke-linecap="round" stroke-linejoin="round"/>
<path d="M1.19336 4.63379H12.6951" stroke="white" stroke-width="0.5" stroke-linecap="round" stroke-linejoin="round"/>
<path d="M6.94434 1.1333V4.63384" stroke="white" stroke-width="0.5" stroke-linecap="round" stroke-linejoin="round"/>
<path d="M6.94434 13.3317V7.4248" stroke="white" stroke-width="1.5" stroke-linecap="round" stroke-linejoin="round"/>
<path d="M8.99729 9.20628C8.37349 8.40938 7.94863 8.03853 7.31545 7.55352C7.0914 7.3819 6.79749 7.3819 6.57344 7.55352C5.94026 8.03853 5.5154 8.40938 4.8916 9.20628" stroke="white" stroke-width="1.5" stroke-linecap="round" stroke-linejoin="round"/>
</g>
<defs>
<clipPath id="clip0_5511_4940">
<rect width="14.0022" height="14.0022" fill="white" transform="translate(-0.0566406 0.120117)"/>
</clipPath>
</defs>
</svg>

<svg xmlns="http://www.w3.org/2000/svg" width="14" height="14" fill="none" data-c="1"><g clip-path="url(#a)"><path fill="#fff" fill-opacity=".5" d="M.977 11.486c-.224-1.474-.456-4.163.217-6.852h11.501c.673 2.689.441 5.378.217 6.852-.103.68-.7 1.149-1.388 1.149h-9.16c-.688 0-1.284-.468-1.387-1.149M12.695 4.634s-1-2.5-3-3.5H4.194c-2 1-3 3.5-3 3.5z"/><path stroke="#fff" stroke-linecap="round" stroke-linejoin="round" stroke-width=".5" d="M2.694 12.635h-.33c-.688 0-1.284-.468-1.387-1.149-.224-1.474-.456-4.163.217-6.852h11.501c.673 2.689.441 5.378.217 6.852-.103.68-.7 1.149-1.388 1.149h-.329"/><path fill="#fff" fill-opacity=".5" stroke="#fff" stroke-linecap="round" stroke-linejoin="round" stroke-width=".5" d="M12.695 4.634s-1-2.5-3-3.5H4.194c-2 1-3 3.5-3 3.5z"/><path stroke="#fff" stroke-linecap="round" stroke-linejoin="round" stroke-width=".5" d="M1.193 4.634h11.502M6.944 1.133v3.5"/><path stroke="#fff" stroke-linecap="round" stroke-linejoin="round" stroke-width="1.5" d="M6.944 13.332V7.425M8.997 9.206C8.373 8.41 7.95 8.04 7.315 7.554a.6.6 0 0 0-.742 0c-.633.485-1.058.855-1.681 1.652"/></g><defs><clipPath id="a"><path fill="#fff" d="M-.057.12h14.002v14.002H-.057z"/></clipPath></defs></svg>
